static/logos/teamwork-wordmark-color.svg

<svg width="100" height="14" viewBox="0 0 100 14" fill="none" xmlns="http://www.w3.org/2000/svg">
<g clip-path="url(#clip0_1_778)">
<path fill-rule="evenodd" clip-rule="evenodd" d="M4.35971 5.12741C5.12662 5.12741 5.56619 4.71014 5.56619 3.98137C5.56619 3.29503 5.09353 2.8346 4.38993 2.8346H2.65108V1.54683C2.65108 0.618059 1.98417 0.132447 1.32518 0.132447C0.666906 0.131728 0 0.618059 0 1.54683V10.4289C0 12.5634 0.851079 13.5152 2.75827 13.5152C3.79209 13.5152 4.38345 13.2497 4.8223 12.9915C5.15827 12.8044 5.2777 12.4087 5.2777 12.1008C5.2777 11.5296 4.8964 10.8929 4.34748 10.8929C4.23188 10.894 4.1182 10.9227 4.01583 10.9763C3.87194 11.0425 3.6741 11.1332 3.38489 11.1332C3.04317 11.1332 2.65108 11.0123 2.65108 10.0706V5.12813H4.36043L4.35971 5.12741Z" fill="#1B1A32"/>
<path fill-rule="evenodd" clip-rule="evenodd" d="M10.4889 4.76843C10.8242 4.64612 11.158 4.58425 11.4803 4.58425C12.5832 4.58425 13.3544 5.29648 13.7364 6.00656L8.79686 7.8044C8.57096 6.73677 8.88175 5.35332 10.4889 4.76843ZM15.794 9.69937C15.5193 9.7039 15.2544 9.80182 15.0429 9.97707L15.0055 10.0102C14.5301 10.4302 13.978 10.7543 13.3796 10.9648C12.9404 11.1306 12.4756 11.2182 12.0062 11.2238C10.8609 11.2238 9.8983 10.6116 9.40405 9.57851L15.4983 7.36052C16.458 7.01087 16.5868 6.30152 16.3875 5.75332C15.6436 3.71015 13.8911 2.44037 11.8134 2.44037C11.1357 2.44037 10.4314 2.5713 9.71988 2.8303C8.15729 3.39864 7.04504 4.42454 6.50116 5.79576C6.00907 7.03893 6.0213 8.50081 6.53425 9.91088C7.3652 12.1943 9.13283 13.5037 11.3839 13.5037C11.8295 13.5017 12.2738 13.4542 12.7098 13.362C13.1068 13.2808 13.4973 13.1707 13.8782 13.0325C14.8976 12.662 15.8264 12.126 16.563 11.4835L16.5702 11.4778L16.576 11.4713C16.8206 11.1943 16.9177 10.8641 16.8494 10.5418C16.7487 10.0612 16.2954 9.69937 15.794 9.69937Z" fill="#1B1A32"/>
<path fill-rule="evenodd" clip-rule="evenodd" d="M26.0195 8.01073C26.0195 9.56469 25.1368 11.133 23.1656 11.133C21.4764 11.133 20.3419 9.89059 20.3419 8.04023C20.3419 6.15533 21.4886 4.88914 23.1951 4.88914C24.6008 4.88914 26.0195 5.85389 26.0195 8.01145V8.01073ZM27.4044 2.50641C26.6188 2.50641 26.049 3.06396 26.049 3.83159V3.87403C25.2685 2.98914 24.1116 2.50641 22.7476 2.50641C19.6692 2.50641 17.6016 4.71864 17.6016 8.01073C17.6016 11.3035 19.6332 13.5158 22.6584 13.5158C24.1404 13.5158 25.349 12.9769 26.1088 11.9891V12.1906C26.1088 13.1676 26.7778 13.5158 27.4037 13.5158C28.185 13.5158 28.6699 13.0079 28.6699 12.1899V3.83159C28.6699 3.02655 28.1735 2.50641 27.4037 2.50641" fill="#1B1A32"/>
<path fill-rule="evenodd" clip-rule="evenodd" d="M42.6435 2.5064C41.0866 2.5064 39.8823 3.1956 39.2953 4.40927C38.6507 3.16251 37.4924 2.5064 35.9269 2.5064C34.7614 2.5064 33.719 2.96827 33.1024 3.73445C33.0837 3.02006 32.5327 2.5064 31.7773 2.5064C31.1032 2.5064 30.4219 2.93445 30.4219 3.89129V12.1898C30.4219 13.0452 30.8931 13.5157 31.7478 13.5157C32.5967 13.5157 33.1032 13.0201 33.1032 12.1898V7.23445C33.1032 5.59848 33.8319 4.76899 35.2701 4.76899C36.6823 4.76899 37.2586 5.55316 37.2586 7.47401V12.1603C37.2586 13.0344 37.7291 13.5157 38.5837 13.5157C39.4449 13.5157 39.9384 13.0215 39.9384 12.1603V7.53229C39.9384 5.67258 40.6578 4.76827 42.1363 4.76827C43.5298 4.76827 44.124 5.5956 44.124 7.53229V12.1596C44.124 13.0337 44.5945 13.515 45.4492 13.515C46.3111 13.515 46.8046 13.0208 46.8046 12.1596V7.53229C46.8046 4.19704 45.4046 2.50568 42.6435 2.50568" fill="#1B1A32"/>
<path fill-rule="evenodd" clip-rule="evenodd" d="M62.9821 2.50641C62.3929 2.50641 61.9001 2.93087 61.6642 3.63878L59.4009 10.0338L57.1656 3.669C56.9232 2.97116 56.6167 2.50641 55.9073 2.50641C55.1498 2.50641 54.8699 2.91576 54.6196 3.669L52.3843 10.0338L50.1217 3.64094C49.885 2.93087 49.3922 2.50641 48.803 2.50641C48.2397 2.50641 47.6562 2.969 47.6562 3.74238C47.6562 3.98986 47.7138 4.23662 47.8455 4.56612L50.8901 12.3287C51.1814 13.0409 51.5469 13.5158 52.385 13.5158C53.3023 13.5158 53.6512 12.8791 53.8519 12.3244L55.9059 6.72583L57.9023 12.3208C58.1663 13.1136 58.6706 13.515 59.4001 13.515C60.0965 13.515 60.6095 13.1165 60.9253 12.3266L63.9375 4.54238C64.0685 4.24885 64.1289 3.9949 64.1289 3.74238C64.1289 3.03734 63.6361 2.50641 62.9821 2.50641Z" fill="#1B1A32"/>
<path fill-rule="evenodd" clip-rule="evenodd" d="M69.8002 11.4014C68.0397 11.4014 66.9462 10.1021 66.9462 8.01071C66.9462 5.98697 68.0663 4.67977 69.8002 4.67977C71.534 4.67977 72.6541 5.98697 72.6541 8.01071C72.6541 10.0704 71.534 11.4014 69.8002 11.4014ZM69.8002 2.53589C68.0613 2.53589 66.6217 3.10711 65.6354 4.18697C64.7527 5.15531 64.2656 6.51287 64.2656 8.01071C64.2656 9.51071 64.752 10.874 65.6354 11.8488C66.6225 12.9395 68.0627 13.5157 69.8009 13.5157C73.8851 13.5157 75.3347 10.5503 75.3347 8.01071C75.3347 5.48553 73.8851 2.53589 69.8002 2.53589Z" fill="#1B1A32"/>
<path fill-rule="evenodd" clip-rule="evenodd" d="M81.8096 2.50646C81.3016 2.50375 80.7988 2.61131 80.3362 2.82172C79.8743 3.03212 79.4628 3.34037 79.1311 3.72516C79.1038 3.3934 78.9527 3.08398 78.7081 2.85826C78.4635 2.63253 78.1434 2.50696 77.8103 2.50646C77.0671 2.50646 76.4844 3.08919 76.4844 3.83164V12.1899C76.4844 13.0604 77.1513 13.5158 77.8103 13.5158C78.4685 13.5158 79.1355 13.0604 79.1355 12.1899V8.21944C79.1355 5.82229 79.7923 4.79926 81.3326 4.79926C81.5779 4.79926 81.7203 4.83164 81.8578 4.86401C81.9793 4.89207 82.0937 4.91869 82.2578 4.91869C82.8901 4.91869 83.3146 4.44603 83.3146 3.74243C83.3146 2.99135 82.7239 2.50646 81.8096 2.50646Z" fill="#1B1A32"/>
<path fill-rule="evenodd" clip-rule="evenodd" d="M89.4265 8.03878L92.3215 5.02727C92.7244 4.62439 93.1049 4.24309 93.1049 3.71216C93.1049 3.02511 92.5862 2.5064 91.8984 2.5064C91.3596 2.5064 90.9776 2.91935 90.6085 3.31935L87.1049 6.9395V1.45748C87.1049 1.10576 86.9654 0.768446 86.7164 0.519672C86.4682 0.270903 86.1308 0.13105 85.779 0.130859C85.4279 0.13124 85.0905 0.270956 84.8423 0.519372C84.5934 0.767791 84.4538 1.10463 84.4531 1.45604V12.1899C84.4531 12.9201 85.0474 13.5143 85.779 13.5143C86.1301 13.514 86.4675 13.3742 86.7157 13.1258C86.9639 12.8773 87.1035 12.5405 87.1042 12.1891V8.93519L90.6107 12.5819C90.6725 12.6438 90.733 12.7071 90.7934 12.7697C91.1452 13.1366 91.5085 13.5158 92.0474 13.5158C92.6848 13.5158 93.2236 12.9776 93.2236 12.3402C93.2236 11.8769 92.9092 11.5237 92.5877 11.2021L89.4251 8.0395L89.4265 8.03878Z" fill="#1B1A32"/>
<path fill-rule="evenodd" clip-rule="evenodd" d="M97.083 8.87061C96.4665 8.8714 95.8758 9.11658 95.4398 9.55248C95.0039 9.98838 94.7585 10.5793 94.7578 11.1958C94.7585 11.8123 95.0039 12.4032 95.4398 12.8391C95.8758 13.275 96.4665 13.5202 97.083 13.521C97.6995 13.5204 98.2909 13.2753 98.7269 12.8394C99.1628 12.4034 99.4082 11.8123 99.4089 11.1958C99.4082 10.5792 99.1628 9.98816 98.7269 9.55219C98.2909 9.11629 97.6995 8.87118 97.083 8.87061Z" fill="#FF1FA8"/>
</g>
<defs>
<clipPath id="clip0_1_778">
<rect width="100" height="13.6691" fill="white"/>
</clipPath>
</defs>
</svg>

<svg xmlns="http://www.w3.org/2000/svg" width="457.143" height="64" fill="none" viewBox="0 0 100 14"><g fill-rule="evenodd" clip-path="url(#a)" clip-rule="evenodd"><path fill="#1B1A32" d="M4.36 5.127c.767 0 1.206-.417 1.206-1.146 0-.686-.472-1.146-1.176-1.146H2.65V1.547c0-.929-.667-1.415-1.326-1.415C.667.132 0 .618 0 1.547v8.882c0 2.134.851 3.086 2.758 3.086 1.034 0 1.625-.265 2.064-.524.336-.187.456-.582.456-.89 0-.571-.382-1.208-.93-1.208a.73.73 0 0 0-.332.083 1.409 1.409 0 0 1-.631.157c-.342 0-.734-.12-.734-1.062V5.128h1.71-.001ZM10.489 4.768c.335-.122.669-.184.991-.184 1.103 0 1.874.712 2.256 1.423l-4.94 1.797c-.225-1.067.086-2.45 1.693-3.036ZM15.794 9.7c-.275.005-.54.103-.751.278l-.037.033a4.923 4.923 0 0 1-1.626.955c-.44.166-.904.253-1.374.259-1.145 0-2.108-.612-2.602-1.645l6.094-2.218c.96-.35 1.089-1.06.89-1.608-.744-2.043-2.497-3.313-4.575-3.313-.677 0-1.382.131-2.093.39C8.157 3.4 7.045 4.425 6.5 5.796c-.492 1.243-.48 2.705.033 4.115.831 2.283 2.599 3.593 4.85 3.593.445-.002.89-.05 1.326-.142a8.305 8.305 0 0 0 1.168-.33c1.02-.37 1.948-.906 2.685-1.549l.007-.005.006-.007c.245-.277.342-.607.273-.93-.1-.48-.554-.842-1.055-.842ZM26.02 8.01c0 1.555-.883 3.123-2.854 3.123-1.69 0-2.824-1.242-2.824-3.093 0-1.885 1.147-3.15 2.853-3.15 1.406 0 2.825.964 2.825 3.121Zm1.384-5.504c-.785 0-1.355.558-1.355 1.326v.042c-.78-.885-1.937-1.368-3.301-1.368-3.079 0-5.146 2.213-5.146 5.505 0 3.293 2.031 5.505 5.056 5.505 1.482 0 2.691-.54 3.45-1.527v.202c0 .977.67 1.325 1.296 1.325.781 0 1.266-.508 1.266-1.326V3.832c0-.805-.497-1.326-1.266-1.326M42.644 2.506c-1.557 0-2.762.69-3.349 1.903-.644-1.246-1.803-1.903-3.368-1.903-1.166 0-2.208.462-2.825 1.228-.018-.714-.57-1.228-1.325-1.228-.674 0-1.355.428-1.355 1.385v8.299c0 .855.471 1.326 1.326 1.326.849 0 1.355-.496 1.355-1.326V7.234c0-1.636.729-2.465 2.167-2.465 1.412 0 1.989.784 1.989 2.705v4.686c0 .874.47 1.356 1.325 1.356.86 0 1.354-.495 1.354-1.356V7.532c0-1.86.72-2.764 2.198-2.764 1.394 0 1.988.828 1.988 2.764v4.628c0 .874.47 1.355 1.325 1.355.862 0 1.356-.494 1.356-1.355V7.532c0-3.335-1.4-5.026-4.161-5.026M62.982 2.506c-.59 0-1.082.425-1.318 1.133l-2.263 6.395-2.235-6.365c-.243-.698-.55-1.163-1.259-1.163-.757 0-1.037.41-1.287 1.163l-2.236 6.365-2.262-6.393c-.237-.71-.73-1.135-1.319-1.135-.563 0-1.147.463-1.147 1.236 0 .248.058.495.19.824l3.044 7.763c.291.712.657 1.187 1.495 1.187.917 0 1.266-.637 1.467-1.192l2.054-5.598 1.996 5.595c.264.793.769 1.194 1.498 1.194.697 0 1.21-.399 1.525-1.188l3.013-7.785c.13-.293.19-.547.19-.8 0-.705-.492-1.236-1.146-1.236ZM69.8 11.401c-1.76 0-2.854-1.299-2.854-3.39 0-2.024 1.12-3.331 2.854-3.331s2.854 1.307 2.854 3.33c0 2.06-1.12 3.391-2.854 3.391Zm0-8.865c-1.739 0-3.178.571-4.165 1.651-.882.968-1.37 2.326-1.37 3.824 0 1.5.487 2.863 1.37 3.838.987 1.09 2.428 1.667 4.166 1.667 4.084 0 5.534-2.966 5.534-5.505 0-2.525-1.45-5.475-5.535-5.475ZM81.81 2.506a3.514 3.514 0 0 0-2.679 1.22 1.328 1.328 0 0 0-1.32-1.22c-.744 0-1.327.583-1.327 1.326v8.358c0 .87.667 1.326 1.326 1.326s1.325-.456 1.325-1.326V8.22c0-2.398.657-3.42 2.198-3.42.245 0 .387.032.525.064.121.028.236.055.4.055.632 0 1.057-.473 1.057-1.177 0-.75-.591-1.236-1.505-1.236ZM89.427 8.039l2.894-3.012c.403-.403.784-.784.784-1.315a1.18 1.18 0 0 0-1.207-1.206c-.538 0-.92.413-1.29.813l-3.503 3.62V1.457a1.325 1.325 0 0 0-2.652-.001V12.19a1.326 1.326 0 0 0 2.651 0V8.934l3.507 3.647.182.188c.352.367.715.746 1.254.746.638 0 1.177-.538 1.177-1.176 0-.463-.315-.816-.636-1.138L89.425 8.04l.002-.001Z"/><path fill="#FF1FA8" d="M97.083 8.87a2.328 2.328 0 0 0-2.325 2.326 2.328 2.328 0 0 0 2.325 2.325 2.329 2.329 0 0 0 2.326-2.325 2.328 2.328 0 0 0-2.326-2.325Z"/></g><defs><clipPath id="a"><path fill="#fff" d="M0 0h100v13.669H0z"/></clipPath></defs></svg>
